X: 49
T:Batchelor's Hall. WCa.49
M:6/8
Q:50
S:Wm. Calvert MS, 1812, Leyburn, Yorks.
R:Air
O:England
A:North Yorkshire
Z:vmp.Chris Partington, May 2003
K:C
G|ccc egc|Bdd d2d/e/|fdd BG/A/B/G/|ccc cd e/f/|!
gdd BG/A/B/G/|ddd d2d/c/|BG/A/B/G/ FD/E/F/D/|GGGG2G/G/|!
ccc cGG|EC/D/E/F/ G2"qu's"((3G/A/B/)|ccc cGG|EC/D/E/F/ G2G/G/|!
AAA fdd|cBd"Pause"g2g/f/|ecc BGB|cee g2g/f/|!
ecc BG/A/B/G/|ccc c2e/c/|d2e/c/d2d/e/|fff/g/"Pause"a2a/f/|!
ecc BG/A/B/G/|cccc2a/g/|f2f/e/d2d/c/|!
BBBB2g/f/|ec/d/e/c/ BG/A/B/G/|ceee2:||
